src/images/v2/autoscaling.svg

<svg fill="none" height="28" viewBox="0 0 29 28" width="29" xmlns="http://www.w3.org/2000/svg"><path d="m6.31182 10.3842c-2.64909.8736-4.31182 2.1559-4.31182 3.5931 0 2.6491 5.70682 4.7909 12.7382 4.7909 7.0313 0 12.7382-2.1418 12.7382-4.7909 0-1.4372-1.6628-2.7195-4.3119-3.5931" fill="#65f8c3"/><g stroke-linecap="round" stroke-linejoin="round" stroke-miterlimit="2" stroke-width="2.81818"><path d="m6.31182 10.3842c-2.64909.8736-4.31182 2.1559-4.31182 3.5931 0 2.6491 5.70682 4.7909 12.7382 4.7909 7.0313 0 12.7382-2.1418 12.7382-4.7909 0-1.4372-1.6628-2.7195-4.3119-3.5931" stroke="#65f8c3"/><path d="m14.7382 11.5818c7.0351 0 12.7382-2.14495 12.7382-4.79089 0-2.64595-5.7031-4.79091-12.7382-4.79091-7.03512 0-12.7382 2.14496-12.7382 4.79091 0 2.64594 5.70308 4.79089 12.7382 4.79089z" stroke="#12c3f4"/><path d="m6.31182 17.5705c-2.64909.8736-4.31182 2.1559-4.31182 3.5932 0 2.6491 5.70682 4.7909 12.7382 4.7909 7.0313 0 12.7382-2.1418 12.7382-4.7909 0-1.4373-1.6628-2.7196-4.3119-3.5932-1.9586-.7891-15.93677-5.2137-20.29086-9.03229" stroke="#12c3f4"/></g></svg>

<svg width="29" height="28" viewBox="0 0 29 28" fill="none" xmlns="http://www.w3.org/2000/svg">
<path d="M6.31182 10.3842C3.66273 11.2578 2 12.5401 2 13.9773C2 16.6264 7.70682 18.7682 14.7382 18.7682C21.7695 18.7682 27.4764 16.6264 27.4764 13.9773C27.4764 12.5401 25.8136 11.2578 23.1645 10.3842" fill="#65F8C3"/>
<path d="M6.31182 10.3842C3.66273 11.2578 2 12.5401 2 13.9773C2 16.6264 7.70682 18.7682 14.7382 18.7682C21.7695 18.7682 27.4764 16.6264 27.4764 13.9773C27.4764 12.5401 25.8136 11.2578 23.1645 10.3842" stroke="#65F8C3" stroke-width="2.81818" stroke-miterlimit="2" stroke-linecap="round" stroke-linejoin="round"/>
<path d="M14.7382 11.5818C21.7733 11.5818 27.4764 9.43685 27.4764 6.79091C27.4764 4.14496 21.7733 2 14.7382 2C7.70308 2 2 4.14496 2 6.79091C2 9.43685 7.70308 11.5818 14.7382 11.5818Z" stroke="#12C3F4" stroke-width="2.81818" stroke-miterlimit="2" stroke-linecap="round" stroke-linejoin="round"/>
<path d="M6.31182 17.5705C3.66273 18.4441 2 19.7264 2 21.1637C2 23.8128 7.70682 25.9546 14.7382 25.9546C21.7695 25.9546 27.4764 23.8128 27.4764 21.1637C27.4764 19.7264 25.8136 18.4441 23.1645 17.5705C21.2059 16.7814 7.22773 12.3568 2.87364 8.53821" stroke="#12C3F4" stroke-width="2.81818" stroke-miterlimit="2" stroke-linecap="round" stroke-linejoin="round"/>
</svg>
